src/images/svg/flags/ru.svg

<svg width="24" height="16" viewBox="0 0 24 16" fill="none" xmlns="http://www.w3.org/2000/svg">
<path d="M0 11H24V14C24 15.1046 23.1046 16 22 16H2C0.89543 16 0 15.1046 0 14V11Z" fill="#E53B35"/>
<path d="M24 5H0V11H24V5Z" fill="#0C47B7"/>
<path d="M2 0H22C23.1046 0 24 0.89543 24 2V5H0V2C0 0.89543 0.89543 0 2 0Z" fill="white"/>
<path fill-rule="evenodd" clip-rule="evenodd" d="M22 1H2C1.44772 1 1 1.44772 1 2V14C1 14.5523 1.44772 15 2 15H22C22.5523 15 23 14.5523 23 14V2C23 1.44771 22.5523 1 22 1ZM2 0C0.895431 0 0 0.895431 0 2V14C0 15.1046 0.89543 16 2 16H22C23.1046 16 24 15.1046 24 14V2C24 0.895431 23.1046 0 22 0H2Z" fill="black" fill-opacity="0.04"/>
</svg>

<svg width="24" height="16" fill="none" xmlns="http://www.w3.org/2000/svg"><path d="M0 11h24v3a2 2 0 0 1-2 2H2a2 2 0 0 1-2-2v-3Z" fill="#E53B35"/><path d="M24 5H0v6h24V5Z" fill="#0C47B7"/><path d="M2 0h20a2 2 0 0 1 2 2v3H0V2a2 2 0 0 1 2-2Z" fill="#fff"/><path fill-rule="evenodd" clip-rule="evenodd" d="M22 1H2a1 1 0 0 0-1 1v12a1 1 0 0 0 1 1h20a1 1 0 0 0 1-1V2a1 1 0 0 0-1-1ZM2 0a2 2 0 0 0-2 2v12a2 2 0 0 0 2 2h20a2 2 0 0 0 2-2V2a2 2 0 0 0-2-2H2Z" fill="#000" fill-opacity=".04"/></svg>
